X: 10492
T: The ODDITY
C:
%R: jig
B: Elias Howe "The Musician's Companion" Part 1 1842 p.49 #2
S: http://imslp.org/wiki/The_Musician's_Companion_(Howe,_Elias)
Z: 2015 John Chambers <jc:trillian.mit.edu>
M: 6/8
L: 1/8
K: G
% - - - - - - - - - - - - - - - - - - - - - - - - -
|:\
Bcd dBG | dBG dBG | Bcd efg | ABG FED |\
Bcd dBG | dBG dBG | EcA FDF | G3 G3 :|
|:\
Bdg gdB | gdc BAG | Bdg gdB | abg fed |\
Bdg gdB | gdc BAG | EcA FDF | G3 G3 :|
% - - - - - - - - - - - - - - - - - - - - - - - - -


